groups/aromatics/biphenyl.svg

<svg height="256" viewBox="0 0 256 256" width="256" xmlns="http://www.w3.org/2000/svg"><path d="m0 0h256v256h-256z" fill="#fff"/><g fill="none" stroke-width="2"><path d="m150.7 209.2-45.9-26.6" stroke="#000"/><path d="m104.8 182.6-46 26.5" stroke="#000"/><path d="m96.8 178-38 21.9" stroke="#000"/><path d="m58.8 209.1-46-26.6" stroke="#000"/><path d="m12.8 182.5v-53" stroke="#000"/><path d="m20.8 178v-43.9" stroke="#000"/><path d="m12.8 129.5 46-26.6" stroke="#000"/><path d="m58.8 102.9 46 26.6" stroke="#000"/><path d="m58.8 112.1 38 22" stroke="#000"/><path d="m104.8 129.5 46-26.5" stroke="#000"/><path d="m150.8 103v-53.1" stroke="#000"/><path d="m158.8 98.4v-43.9" stroke="#000"/><path d="m150.8 49.9 46-26.5" stroke="#000"/><path d="m196.8 23.4 46 26.6" stroke="#000"/><path d="m196.8 32.6 38 22" stroke="#000"/><path d="m242.8 50v53.1" stroke="#000"/><path d="m242.8 103.1-46 26.5" stroke="#000"/><path d="m234.8 98.5-38 21.9" stroke="#000"/><path d="m104.8 129.5v53.1" stroke="#000"/><path d="m196.8 129.6-46-26.6" stroke="#000"/><path d="m61.1 207.8-2.3 1.3-2.3-1.3" stroke="#000" stroke-miterlimit="10"/><path d="m15.1 183.9-2.3-1.4v-2.6" stroke="#000" stroke-miterlimit="10"/><path d="m12.8 132.1v-2.6l2.3-1.4" stroke="#000" stroke-miterlimit="10"/><path d="m56.5 104.3 2.3-1.4 2.3 1.4" stroke="#000" stroke-miterlimit="10"/><path d="m150.8 52.6v-2.7l2.3-1.3" stroke="#000" stroke-miterlimit="10"/><path d="m194.5 24.7 2.3-1.3 2.3 1.3" stroke="#000" stroke-miterlimit="10"/><path d="m240.5 48.7 2.3 1.3v2.7" stroke="#000" stroke-miterlimit="10"/><path d="m242.8 100.4v2.7l-2.3 1.3" stroke="#000" stroke-miterlimit="10"/><path d="m199.1 128.3-2.3 1.3-2.3-1.3" stroke="#000" stroke-miterlimit="10"/><path d="m164.005 186.221c-1.723-.996-3.052 1.302-1.329 2.299 1.724.996.395 3.294-1.329 2.298-1.723-.997-3.052 1.301-1.329 2.298 1.724.996.395 3.294-1.329 2.298-1.723-.997-3.052 1.301-1.329 2.298 1.724.996.395 3.294-1.329 2.298-1.723-.997-3.052 1.301-1.329 2.298 1.724.996.395 3.294-1.329 2.298-1.723-.997-3.052 1.301-1.329 2.298 1.724.997.395 3.295-1.329 2.298-1.723-.997-3.052 1.301-1.329 2.298 1.724.997.395 3.295-1.329 2.298-1.723-.997-3.052 1.301-1.329 2.298 1.724.997.394 3.295-1.329 2.298-1.724-.997-3.053 1.301-1.329 2.298 1.723.997.394 3.295-1.329 2.298-1.724-.997-3.053 1.301-1.329 2.298 1.723.997.394 3.295-1.329 2.298-1.724-.997-3.053 1.301-1.329 2.298 1.723.997.394 3.295-1.329 2.298" stroke="#7f7f7f"/></g></svg>

<?xml version='1.0' encoding='iso-8859-1'?>
<svg version='1.1' baseProfile='full'
              xmlns='http://www.w3.org/2000/svg'
                      xmlns:rdkit='http://www.rdkit.org/xml'
                      xmlns:xlink='http://www.w3.org/1999/xlink'
                  xml:space='preserve'
width='256px' height='256px' viewBox='0 0 256 256'>
<!-- END OF HEADER -->
<rect style='opacity:1.0;fill:#FFFFFF;stroke:none' width='256.0' height='256.0' x='0.0' y='0.0'> </rect>
<path class='bond-0 atom-0 atom-1' d='M 150.7,209.2 L 104.8,182.6' style='fill:none;fill-rule:evenodd;stroke:#000000;stroke-width:2.0px;stroke-linecap:butt;stroke-linejoin:miter;stroke-opacity:1' />
<path class='bond-1 atom-1 atom-2' d='M 104.8,182.6 L 58.8,209.1' style='fill:none;fill-rule:evenodd;stroke:#000000;stroke-width:2.0px;stroke-linecap:butt;stroke-linejoin:miter;stroke-opacity:1' />
<path class='bond-1 atom-1 atom-2' d='M 96.8,178.0 L 58.8,199.9' style='fill:none;fill-rule:evenodd;stroke:#000000;stroke-width:2.0px;stroke-linecap:butt;stroke-linejoin:miter;stroke-opacity:1' />
<path class='bond-2 atom-2 atom-3' d='M 58.8,209.1 L 12.8,182.5' style='fill:none;fill-rule:evenodd;stroke:#000000;stroke-width:2.0px;stroke-linecap:butt;stroke-linejoin:miter;stroke-opacity:1' />
<path class='bond-3 atom-3 atom-4' d='M 12.8,182.5 L 12.8,129.5' style='fill:none;fill-rule:evenodd;stroke:#000000;stroke-width:2.0px;stroke-linecap:butt;stroke-linejoin:miter;stroke-opacity:1' />
<path class='bond-3 atom-3 atom-4' d='M 20.8,178.0 L 20.8,134.1' style='fill:none;fill-rule:evenodd;stroke:#000000;stroke-width:2.0px;stroke-linecap:butt;stroke-linejoin:miter;stroke-opacity:1' />
<path class='bond-4 atom-4 atom-5' d='M 12.8,129.5 L 58.8,102.9' style='fill:none;fill-rule:evenodd;stroke:#000000;stroke-width:2.0px;stroke-linecap:butt;stroke-linejoin:miter;stroke-opacity:1' />
<path class='bond-5 atom-5 atom-6' d='M 58.8,102.9 L 104.8,129.5' style='fill:none;fill-rule:evenodd;stroke:#000000;stroke-width:2.0px;stroke-linecap:butt;stroke-linejoin:miter;stroke-opacity:1' />
<path class='bond-5 atom-5 atom-6' d='M 58.8,112.1 L 96.8,134.1' style='fill:none;fill-rule:evenodd;stroke:#000000;stroke-width:2.0px;stroke-linecap:butt;stroke-linejoin:miter;stroke-opacity:1' />
<path class='bond-6 atom-6 atom-7' d='M 104.8,129.5 L 150.8,103.0' style='fill:none;fill-rule:evenodd;stroke:#000000;stroke-width:2.0px;stroke-linecap:butt;stroke-linejoin:miter;stroke-opacity:1' />
<path class='bond-7 atom-7 atom-8' d='M 150.8,103.0 L 150.8,49.9' style='fill:none;fill-rule:evenodd;stroke:#000000;stroke-width:2.0px;stroke-linecap:butt;stroke-linejoin:miter;stroke-opacity:1' />
<path class='bond-7 atom-7 atom-8' d='M 158.8,98.4 L 158.8,54.5' style='fill:none;fill-rule:evenodd;stroke:#000000;stroke-width:2.0px;stroke-linecap:butt;stroke-linejoin:miter;stroke-opacity:1' />
<path class='bond-8 atom-8 atom-9' d='M 150.8,49.9 L 196.8,23.4' style='fill:none;fill-rule:evenodd;stroke:#000000;stroke-width:2.0px;stroke-linecap:butt;stroke-linejoin:miter;stroke-opacity:1' />
<path class='bond-9 atom-9 atom-10' d='M 196.8,23.4 L 242.8,50.0' style='fill:none;fill-rule:evenodd;stroke:#000000;stroke-width:2.0px;stroke-linecap:butt;stroke-linejoin:miter;stroke-opacity:1' />
<path class='bond-9 atom-9 atom-10' d='M 196.8,32.6 L 234.8,54.6' style='fill:none;fill-rule:evenodd;stroke:#000000;stroke-width:2.0px;stroke-linecap:butt;stroke-linejoin:miter;stroke-opacity:1' />
<path class='bond-10 atom-10 atom-11' d='M 242.8,50.0 L 242.8,103.1' style='fill:none;fill-rule:evenodd;stroke:#000000;stroke-width:2.0px;stroke-linecap:butt;stroke-linejoin:miter;stroke-opacity:1' />
<path class='bond-11 atom-11 atom-12' d='M 242.8,103.1 L 196.8,129.6' style='fill:none;fill-rule:evenodd;stroke:#000000;stroke-width:2.0px;stroke-linecap:butt;stroke-linejoin:miter;stroke-opacity:1' />
<path class='bond-11 atom-11 atom-12' d='M 234.8,98.5 L 196.8,120.4' style='fill:none;fill-rule:evenodd;stroke:#000000;stroke-width:2.0px;stroke-linecap:butt;stroke-linejoin:miter;stroke-opacity:1' />
<path class='bond-12 atom-6 atom-1' d='M 104.8,129.5 L 104.8,182.6' style='fill:none;fill-rule:evenodd;stroke:#000000;stroke-width:2.0px;stroke-linecap:butt;stroke-linejoin:miter;stroke-opacity:1' />
<path class='bond-13 atom-12 atom-7' d='M 196.8,129.6 L 150.8,103.0' style='fill:none;fill-rule:evenodd;stroke:#000000;stroke-width:2.0px;stroke-linecap:butt;stroke-linejoin:miter;stroke-opacity:1' />
<path d='M 61.1,207.8 L 58.8,209.1 L 56.5,207.8' style='fill:none;stroke:#000000;stroke-width:2.0px;stroke-linecap:butt;stroke-linejoin:miter;stroke-miterlimit:10;stroke-opacity:1;' />
<path d='M 15.1,183.9 L 12.8,182.5 L 12.8,179.9' style='fill:none;stroke:#000000;stroke-width:2.0px;stroke-linecap:butt;stroke-linejoin:miter;stroke-miterlimit:10;stroke-opacity:1;' />
<path d='M 12.8,132.1 L 12.8,129.5 L 15.1,128.1' style='fill:none;stroke:#000000;stroke-width:2.0px;stroke-linecap:butt;stroke-linejoin:miter;stroke-miterlimit:10;stroke-opacity:1;' />
<path d='M 56.5,104.3 L 58.8,102.9 L 61.1,104.3' style='fill:none;stroke:#000000;stroke-width:2.0px;stroke-linecap:butt;stroke-linejoin:miter;stroke-miterlimit:10;stroke-opacity:1;' />
<path d='M 150.8,52.6 L 150.8,49.9 L 153.1,48.6' style='fill:none;stroke:#000000;stroke-width:2.0px;stroke-linecap:butt;stroke-linejoin:miter;stroke-miterlimit:10;stroke-opacity:1;' />
<path d='M 194.5,24.7 L 196.8,23.4 L 199.1,24.7' style='fill:none;stroke:#000000;stroke-width:2.0px;stroke-linecap:butt;stroke-linejoin:miter;stroke-miterlimit:10;stroke-opacity:1;' />
<path d='M 240.5,48.7 L 242.8,50.0 L 242.8,52.7' style='fill:none;stroke:#000000;stroke-width:2.0px;stroke-linecap:butt;stroke-linejoin:miter;stroke-miterlimit:10;stroke-opacity:1;' />
<path d='M 242.8,100.4 L 242.8,103.1 L 240.5,104.4' style='fill:none;stroke:#000000;stroke-width:2.0px;stroke-linecap:butt;stroke-linejoin:miter;stroke-miterlimit:10;stroke-opacity:1;' />
<path d='M 199.1,128.3 L 196.8,129.6 L 194.5,128.3' style='fill:none;stroke:#000000;stroke-width:2.0px;stroke-linecap:butt;stroke-linejoin:miter;stroke-miterlimit:10;stroke-opacity:1;' />
<path class='atom-1' d='M164.005,186.221 C162.282,185.225 160.953,187.523 162.676,188.52 C164.4,189.516 163.071,191.814 161.347,190.818 C159.624,189.821 158.295,192.119 160.018,193.116 C161.742,194.112 160.413,196.41 158.689,195.414 C156.966,194.417 155.637,196.715 157.36,197.712 C159.084,198.708 157.755,201.006 156.031,200.01 C154.308,199.013 152.979,201.311 154.702,202.308 C156.426,203.304 155.097,205.602 153.373,204.606 C151.65,203.609 150.321,205.907 152.044,206.904 C153.768,207.901 152.439,210.199 150.715,209.202 C148.992,208.205 147.663,210.503 149.386,211.5 C151.11,212.497 149.781,214.795 148.057,213.798 C146.334,212.801 145.005,215.099 146.728,216.096 C148.452,217.093 147.122,219.391 145.399,218.394 C143.675,217.397 142.346,219.695 144.07,220.692 C145.793,221.689 144.464,223.987 142.741,222.99 C141.017,221.993 139.688,224.291 141.412,225.288 C143.135,226.285 141.806,228.583 140.083,227.586 C138.359,226.589 137.03,228.887 138.754,229.884 C140.477,230.881 139.148,233.179 137.425,232.182' style='fill:none;stroke:#7F7F7F;stroke-width:2.0px;stroke-linecap:butt;stroke-linejoin:miter;stroke-opacity:1' />
</svg>
